svg/u1f392.svg

<svg viewBox="0 0 128 128" xmlns="http://www.w3.org/2000/svg">
  <g>
    <polygon points="31.37,26.45 31.54,8.02 40,5.43 49.75,22.16 " fill="#C62828"/>
    <path d="M36.76,20.48c0,0-2.6-11.89,0.34-13.07c5.23-2.09,9.31,11.65,9.31,11.65L36.76,20.48z" opacity="0.59" fill="#37474F"/>
    <path d="M20.59,32.81c-0.09-1.63-2.29-14.63,1.05-21.88c1.53-3.31,7.81-5.51,13.43-6.76 c1.39-0.31,4.98-0.51,7.21,2.05c2.01,2.31,4.98,7.37,7.91,15l-2.11,4.54c0,0-2.91-7.7-5.82-14.06c-2.41-5.27-5.47-3.52-5.78-2.29 c-0.56,2.26,2.3,14.51,2.3,14.51C34.62,25.69,20.59,32.81,20.59,32.81z" fill="#F44336"/>
  </g>
  <polygon points="42.36,17.37 44.11,8.87 51,4.88 59.29,4.9 66.19,10.49 68.1,21.39 59.77,18.58 58.64,10.77 51,10.58 49.98,16.79 " fill="#455A64"/>
  <g>
    <path d="M35.06,4.18c-5.62,1.24-11.27,3.03-13.43,6.76c-1.24,2.14-1.96,7.75-1.82,12.96 c1.09-1.72,5.54-4.69,8.86-6.13c3.31-1.44,3.69-2.87,3.74-3.5c0.25-2.86,0.01-5.22,0.85-7.24c1.06-2.56,2.57-2.88,3.45-3.01 C36.04,4.02,35.45,4.09,35.06,4.18z" fill="#FF7555"/>
    <path d="M39.59,4.46c-0.54-0.19-1.08-0.31-1.6-0.37C38.53,4.23,39.06,4.41,39.59,4.46z" fill="#FF7555"/>
  </g>
  <path d="M89.99,109.24 c14.88-3.95,19.32-20.76,23.54-22.17" fill="none" stroke="#784D30" stroke-width="9.8158" stroke-miterlimit="10"/>
  <path d="M104.48,74.9c1.09,7.09,3.23,7.62,6.96,7.43c5.65-0.28,6.27-1.58,7.53-11.26 c1.56-12.02-2.95-28.77-6.84-40.25c-2.06-6.08-1.85-10.25-6.44-14.89c-2.52-2.55-12.33-6.3-15.18-1.42 c-1.96,3.36-0.98,6.77,0.89,9.47C96.83,31.84,101.83,57.75,104.48,74.9z" fill="#C62828"/>
  <path d="M93.06,26.91c1.04,2.13,2.11,4.89,2.98,8c8.86-0.27,18.46,3.98,18.46,3.72 c0-0.22-0.75-5.99-3.19-11.71c-1.06-2.48-4.29-9.28-8.29-8.62C97.99,19.14,93.06,26.91,93.06,26.91z" opacity="0.59" fill="#37474F"/>
  <path d="M85.95,39.19c2.61-5.58,12.26-19.78,17.81-20.24c2.75-0.23,5.84,5.46,6.97,8.57 c3.17,8.73,6.62,22.43,7.63,36.73c0.63,8.92-1,16.02-4.36,18.97c12.88-2.41,7.85-30.52,6.76-36.34 c-3.67-19.49-8.48-26.84-12.17-30.77c-2.82-3-15.1-9.35-21.58-9.05c-4.99,0.23-15.91,9.56-18.89,14.73 C67.24,23.31,85.95,39.19,85.95,39.19z" fill="#F44336"/>
  <path d="M68.66,123.73c16.9-1.34,27.59-10.84,28.71-19.85c3.86-31.14-3.77-76.17-34.16-84.9 c-3.39-0.97-9.35-2.25-14.53-2.25c-6.03,0-15.33,1.27-22.01,5.85c-12.18,8.36-15.43,20.26-16.23,26.16 C7.49,70.37,47.4,125.42,68.66,123.73z" fill="#FF7555"/>
  <path d="M97.37,103.88c2.01-16.2,0.91-36.15-4.89-52.81c-3.02-3.9-6.38-5.73-9.16-4.83 c-3.34,1.08-6.27,5.53-5.21,10.01c0,0,8.09,32.46,2.59,52.99c-3.64,13.59-13.23,14.52-13.23,14.52c0.4,0,0.8,0,1.19-0.03 C85.57,122.39,96.25,112.89,97.37,103.88z" fill="#C62828"/>
  <path d="M18.62,120.38c5.1,1.61,18.51,3.62,42.26,3.62c21.33,0,21.18-7.59,22.94-16.5 c3.62-18.38-1.34-78.26-38.49-79.55C12.84,26.81,9.59,45.89,7.14,66.61c-2.56,21.67-1.96,29.78-0.72,38.61 C8.03,116.76,15.11,119.27,18.62,120.38z" fill="#F44336"/>
  <path d="M90.05,59.81c-0.86-4.52-2.08-9.49-4.09-14.34l-2.42,0.11c1.81,4.11,3.31,8.94,4.39,14.63 c3.45,18.23,3.85,30.45,3.67,37.08c-0.11,3.98,2.08,4,2.19-0.25C93.96,90.23,93.5,78.05,90.05,59.81z" fill="#37474F"/>
  <path d="M92.53,95.21L92.53,95.21c-1.21,0.42-1.95,1.66-1.73,2.92l1.3,7.54c0.21,1.49,1.83,2.33,3.17,1.64 l3.62-1.85c1.18-0.6,1.56-2.11,0.81-3.2l-4.17-6.06C94.87,95.24,93.64,94.83,92.53,95.21z" fill="#E2A610"/>
  <path d="M94.23,105.83c-0.18-0.33-1.14-5.47-1.43-7.81c-0.32-2.63,0.81-2.78,0.98-2.92 c-0.49-0.07-0.87-0.02-1.26,0.11c-1.21,0.42-1.95,1.65-1.73,2.92l1.3,7.54c0.15,1.03,0.96,1.75,1.89,1.87 c0.42,0.05,0.86-0.01,1.28-0.23l0.84-0.43C96.06,106.87,94.82,106.91,94.23,105.83z" fill="#FFCA28"/>
  <path d="M119.95,92.13l-9.34,0.83c-0.86,0.08-1.63-0.56-1.7-1.43l-0.71-7.93c-0.08-0.86,0.56-1.63,1.43-1.7 l9.34-0.83c0.86-0.08,1.63,0.56,1.7,1.43l0.71,7.93C121.45,91.29,120.81,92.05,119.95,92.13z" fill="#546E7A"/>
  <path d="M117.41,92.43l-8.84,0.79c-0.86,0.08-1.63-0.56-1.7-1.43l-0.72-8.09c-0.08-0.86,0.56-1.63,1.43-1.7 l8.84-0.79c0.86-0.08,1.63,0.56,1.7,1.43l0.72,8.09C118.91,91.59,118.27,92.35,117.41,92.43z" fill="#37474F"/>
  <path d="M111.28,101.56l-2.71-14.28c-0.05-0.24,0.12-0.47,0.37-0.49l7.13-0.72c0.2-0.02,0.39,0.11,0.44,0.31 l3.52,13.18c0.23,0.86-0.3,1.75-1.17,1.95l-5.68,1.3C112.31,103,111.44,102.44,111.28,101.56z" fill="#A06841"/>
  <path d="M49.47,58.81l-15.43-0.46c-1.35,0-2.45-1.1-2.45-2.45l0.21-7.94 c0-1.33,1.06-2.42,2.39-2.45l15.26,0.41c1.36-0.04,2.49,1.04,2.52,2.4l-0.03,7.99C51.95,57.68,50.85,58.81,49.47,58.81z" opacity="0.65" fill="#FFF59D"/>
  <path d="M87.01,7.05c-3.78,0.12-11.09,5.62-15.58,10.49c2.32-0.19,7.81,2.38,12.37,5.9 c0.91,0.7,3.15,0.57,4.61-1c1.33-1.43,2.58-2.53,3.92-3.95c7.86-8.33,14.04-4.2,14.04-4.2C99.87,10.06,91.95,6.9,87.01,7.05z" fill="#FF7555"/>
  <path d="M86.27,46.23c-4.93-12.32-14.88-24.17-36.62-26.13c-15.1-1.36-25.27,5.65-29.41,8.19 c-0.92,0.56-1.95,1.26-2.65,2.22c-0.89,1.22-1.01,2.22-1.01,2.22S29.68,20.5,49.45,22.25c11.3,1,26.14,4.77,34.31,23.87 C84.45,45.95,85.38,46.05,86.27,46.23z" fill="#546E7A"/>
  <path d="M69.35,114.25c0,0-15.98,1.11-33.95,0.13c-9.47-0.52-16.41-1.88-17.82-3.71 c-1.74-2.26-3.8-4.45-3.8-16.07c0-7.83,2.89-14.14,8.49-14.28c4.28-0.11,49.21-0.6,45.82-0.6c-3.39,0-6.45,7.43-6.14,15.44 C62.71,114.79,69.35,114.25,69.35,114.25z" fill="#FF7555"/>
  <path d="M53.67,94.6c0.35-0.1,3.53,0.18,6.07-1.59c0.96-0.67,1.72-1.23,2.33-1.87 c0.59-6,2.95-10.89,5.59-11.37c0.09-0.02,0.18-0.04,0.26-0.05C64,79.8,31.95,78.62,21.94,78.77c-4.64,0.07-8.22,5.53-7.9,11.95 c0.67,1.19,1.75,2.47,3.4,2.72C20.68,93.93,53.32,94.71,53.67,94.6z" fill="#FF7555"/>
  <path d="M53.67,94.6c0.35-0.1,3.53,0.18,6.07-1.59c0.96-0.67,1.72-1.23,2.33-1.87 c0.59-6,2.95-10.89,5.59-11.37c0.09-0.02,0.18-0.04,0.26-0.05C64,79.8,31.95,78.62,21.94,78.77c-4.64,0.07-8.22,5.53-7.9,11.95 c0.67,1.19,1.75,2.47,3.4,2.72C20.68,93.93,53.32,94.71,53.67,94.6z" opacity="0.45" fill="#FFF59D"/>
  <path d="M74.42,89.7c-0.34-5.22-1.57-7.7-2.69-8.88c-1.03-1.1-2.64-1.19-4.93-1.08 c-1.42,0.07-4.01,1.43-5.1,9.46l0-0.01c-0.86,1.95-3.11,3.89-6.84,3.89l-35.75-1.16c-3.58-0.23-4.89-3.65-5.06-3.96 c0,0-0.52,2.41-0.03,3.94c0.62,1.92,2.9,3.06,5.09,3.06l35.75,1.16c2.85,0,5.02-1.13,6.42-2.18c-0.06,1.24-0.09,2.59-0.09,4.05 c0,15.36,4.43,16.52,7.26,16.39c2.83-0.14,5.6-1.22,6.05-3.73C75.14,107.14,75.07,99.76,74.42,89.7z" fill="#C62828"/>
</svg>

<svg viewBox="0 0 128 128" xmlns="http://www.w3.org/2000/svg">
  <defs/>
  <path d="M31.37,26.45 L31.54,8.02 L40,5.43 L49.75,22.16 Z" fill="#C62828"/>
  <path d="M36.76,20.48 C36.76,20.48 34.16,8.59 37.1,7.41 C42.33,5.32 46.41,19.06 46.41,19.06 L36.76,20.48 Z" fill="#37474F" opacity="0.59"/>
  <path d="M20.59,32.81 C20.5,31.18 18.3,18.18 21.64,10.93 C23.17,7.62 29.45,5.42 35.07,4.17 C36.46,3.86 40.05,3.66 42.28,6.22 C44.29,8.53 47.26,13.59 50.19,21.22 L48.08,25.76 C48.08,25.76 45.17,18.06 42.26,11.7 C39.85,6.43 36.79,8.18 36.48,9.41 C35.92,11.67 38.78,23.92 38.78,23.92 C34.62,25.69 20.59,32.81 20.59,32.81 Z" fill="#F44336"/>
  <path d="M42.36,17.37 L44.11,8.87 L51,4.88 L59.29,4.9 L66.19,10.49 L68.1,21.39 L59.77,18.58 L58.64,10.77 L51,10.58 L49.98,16.79 Z" fill="#455A64"/>
  <path d="M35.06,4.18 C29.44,5.42 23.79,7.21 21.63,10.94 C20.39,13.08 19.67,18.69 19.81,23.9 C20.9,22.18 25.35,19.21 28.67,17.77 C31.98,16.33 32.36,14.9 32.41,14.27 C32.66,11.41 32.42,9.05 33.26,7.03 C34.32,4.47 35.83,4.15 36.71,4.02 C36.04,4.02 35.45,4.09 35.06,4.18 Z" fill="#FF7555"/>
  <path d="M39.59,4.46 C39.05,4.27 38.51,4.15 37.99,4.09 C38.53,4.23 39.06,4.41 39.59,4.46 Z" fill="#FF7555"/>
  <path d="M88.731,104.496 Q93.862,103.134 98.144,98.738 Q100.802,96.009 104.6,90.113 Q108.898,83.443 111.975,82.415 L115.085,91.725 Q115.514,91.582 115.691,91.426 Q115.502,91.593 115.158,92.03 Q114.517,92.846 112.852,95.43 Q108.52,102.153 105.176,105.586 Q99.002,111.926 91.249,113.984 Z" fill="#784D30"/>
  <path d="M104.48,74.9 C105.57,81.99 107.71,82.52 111.44,82.33 C117.09,82.05 117.71,80.75 118.97,71.07 C120.53,59.05 116.02,42.3 112.13,30.82 C110.07,24.74 110.28,20.57 105.69,15.93 C103.17,13.38 93.36,9.63 90.51,14.51 C88.55,17.87 89.53,21.28 91.4,23.98 C96.83,31.84 101.83,57.75 104.48,74.9 Z" fill="#C62828"/>
  <path d="M93.06,26.91 C94.1,29.04 95.17,31.8 96.04,34.91 C104.9,34.64 114.5,38.89 114.5,38.63 C114.5,38.41 113.75,32.64 111.31,26.92 C110.25,24.44 107.02,17.64 103.02,18.3 C97.99,19.14 93.06,26.91 93.06,26.91 Z" fill="#37474F" opacity="0.59"/>
  <path d="M85.95,39.19 C88.56,33.61 98.21,19.41 103.76,18.95 C106.51,18.72 109.6,24.41 110.73,27.52 C113.9,36.25 117.35,49.95 118.36,64.25 C118.99,73.17 117.36,80.27 114,83.22 C126.88,80.81 121.85,52.7 120.76,46.88 C117.09,27.39 112.28,20.04 108.59,16.11 C105.77,13.11 93.49,6.76 87.01,7.06 C82.02,7.29 71.1,16.62 68.12,21.79 C67.24,23.31 85.95,39.19 85.95,39.19 Z" fill="#F44336"/>
  <path d="M68.66,123.73 C85.56,122.39 96.25,112.89 97.37,103.88 C101.23,72.74 93.6,27.71 63.21,18.98 C59.82,18.01 53.86,16.73 48.68,16.73 C42.65,16.73 33.35,18 26.67,22.58 C14.49,30.94 11.24,42.84 10.44,48.74 C7.49,70.37 47.4,125.42 68.66,123.73 Z" fill="#FF7555"/>
  <path d="M97.37,103.88 C99.38,87.68 98.28,67.73 92.48,51.07 C89.46,47.17 86.1,45.34 83.32,46.24 C79.98,47.32 77.05,51.77 78.11,56.25 C78.11,56.25 86.2,88.71 80.7,109.24 C77.06,122.83 67.47,123.76 67.47,123.76 C67.87,123.76 68.27,123.76 68.66,123.73 C85.57,122.39 96.25,112.89 97.37,103.88 Z" fill="#C62828"/>
  <path d="M18.62,120.38 C23.72,121.99 37.13,124 60.88,124 C82.21,124 82.06,116.41 83.82,107.5 C87.44,89.12 82.48,29.24 45.33,27.95 C12.84,26.81 9.59,45.89 7.14,66.61 C4.58,88.28 5.18,96.39 6.42,105.22 C8.03,116.76 15.11,119.27 18.62,120.38 Z" fill="#F44336"/>
  <path d="M90.05,59.81 C89.19,55.29 87.97,50.32 85.96,45.47 L83.54,45.58 C85.35,49.69 86.85,54.52 87.93,60.21 C91.38,78.44 91.78,90.66 91.6,97.29 C91.49,101.27 93.68,101.29 93.79,97.04 C93.96,90.23 93.5,78.05 90.05,59.81 Z" fill="#37474F"/>
  <path d="M92.53,95.21 L92.53,95.21 C91.32,95.63 90.58,96.87 90.8,98.13 L92.1,105.67 C92.31,107.16 93.93,108 95.27,107.31 L98.89,105.46 C100.07,104.86 100.45,103.35 99.7,102.26 L95.53,96.2 C94.87,95.24 93.64,94.83 92.53,95.21 Z" fill="#E2A610"/>
  <path d="M94.23,105.83 C94.05,105.5 93.09,100.36 92.8,98.02 C92.48,95.39 93.61,95.24 93.78,95.1 C93.29,95.03 92.91,95.08 92.52,95.21 C91.31,95.63 90.57,96.86 90.79,98.13 L92.09,105.67 C92.24,106.7 93.05,107.42 93.98,107.54 C94.4,107.59 94.84,107.53 95.26,107.31 L96.1,106.88 C96.06,106.87 94.82,106.91 94.23,105.83 Z" fill="#FFCA28"/>
  <path d="M119.95,92.13 L110.61,92.96 C109.75,93.04 108.98,92.4 108.91,91.53 L108.2,83.6 C108.12,82.74 108.76,81.97 109.63,81.9 L118.97,81.07 C119.83,80.99 120.6,81.63 120.67,82.5 L121.38,90.43 C121.45,91.29 120.81,92.05 119.95,92.13 Z" fill="#546E7A"/>
  <path d="M117.41,92.43 L108.57,93.22 C107.71,93.3 106.94,92.66 106.87,91.79 L106.15,83.7 C106.07,82.84 106.71,82.07 107.58,82 L116.42,81.21 C117.28,81.13 118.05,81.77 118.12,82.64 L118.84,90.73 C118.91,91.59 118.27,92.35 117.41,92.43 Z" fill="#37474F"/>
  <path d="M111.28,101.56 L108.57,87.28 C108.52,87.04 108.69,86.81 108.94,86.79 L116.07,86.07 C116.27,86.05 116.46,86.18 116.51,86.38 L120.03,99.56 C120.26,100.42 119.73,101.31 118.86,101.51 L113.18,102.81 C112.31,103 111.44,102.44 111.28,101.56 Z" fill="#A06841"/>
  <path d="M49.47,58.81 L34.04,58.35 C32.69,58.35 31.59,57.25 31.59,55.9 L31.8,47.96 C31.8,46.63 32.86,45.54 34.19,45.51 L49.45,45.92 C50.81,45.88 51.94,46.96 51.97,48.32 L51.94,56.31 C51.95,57.68 50.85,58.81 49.47,58.81 Z" fill="#FFF59D" opacity="0.65"/>
  <path d="M87.01,7.05 C83.23,7.17 75.92,12.67 71.43,17.54 C73.75,17.35 79.24,19.92 83.8,23.44 C84.71,24.14 86.95,24.01 88.41,22.44 C89.74,21.01 90.99,19.91 92.33,18.49 C100.19,10.16 106.37,14.29 106.37,14.29 C99.87,10.06 91.95,6.9 87.01,7.05 Z" fill="#FF7555"/>
  <path d="M86.27,46.23 C81.34,33.91 71.39,22.06 49.65,20.1 C34.55,18.74 24.38,25.75 20.24,28.29 C19.32,28.85 18.29,29.55 17.59,30.51 C16.7,31.73 16.58,32.73 16.58,32.73 C16.58,32.73 29.68,20.5 49.45,22.25 C60.75,23.25 75.59,27.02 83.76,46.12 C84.45,45.95 85.38,46.05 86.27,46.23 Z" fill="#546E7A"/>
  <path d="M69.35,114.25 C69.35,114.25 53.37,115.36 35.4,114.38 C25.93,113.86 18.99,112.5 17.58,110.67 C15.84,108.41 13.78,106.22 13.78,94.6 C13.78,86.77 16.67,80.46 22.27,80.32 C26.55,80.21 71.48,79.72 68.09,79.72 C64.7,79.72 61.64,87.15 61.95,95.16 C62.71,114.79 69.35,114.25 69.35,114.25 Z" fill="#FF7555"/>
  <path d="M53.67,94.6 C54.02,94.5 57.2,94.78 59.74,93.01 C60.7,92.34 61.46,91.78 62.07,91.14 C62.66,85.14 65.02,80.25 67.66,79.77 C67.75,79.75 67.84,79.73 67.92,79.72 C64,79.8 31.95,78.62 21.94,78.77 C17.3,78.84 13.72,84.3 14.04,90.72 C14.71,91.91 15.79,93.19 17.44,93.44 C20.68,93.93 53.32,94.71 53.67,94.6 Z" fill="#FF7555"/>
  <path d="M53.67,94.6 C54.02,94.5 57.2,94.78 59.74,93.01 C60.7,92.34 61.46,91.78 62.07,91.14 C62.66,85.14 65.02,80.25 67.66,79.77 C67.75,79.75 67.84,79.73 67.92,79.72 C64,79.8 31.95,78.62 21.94,78.77 C17.3,78.84 13.72,84.3 14.04,90.72 C14.71,91.91 15.79,93.19 17.44,93.44 C20.68,93.93 53.32,94.71 53.67,94.6 Z" fill="#FFF59D" opacity="0.45"/>
  <path d="M74.42,89.7 C74.08,84.48 72.85,82 71.73,80.82 C70.7,79.72 69.09,79.63 66.8,79.74 C65.38,79.81 62.79,81.17 61.7,89.2 L61.7,89.19 C60.84,91.14 58.59,93.08 54.86,93.08 L19.11,91.92 C15.53,91.69 14.22,88.27 14.05,87.96 C14.05,87.96 13.53,90.37 14.02,91.9 C14.64,93.82 16.92,94.96 19.11,94.96 L54.86,96.12 C57.71,96.12 59.88,94.99 61.28,93.94 C61.22,95.18 61.19,96.53 61.19,97.99 C61.19,113.35 65.62,114.51 68.45,114.38 C71.28,114.24 74.05,113.16 74.5,110.65 C75.14,107.14 75.07,99.76 74.42,89.7 Z" fill="#C62828"/>
</svg>
